!!!COM: Claude Goudimel
!!!OMD: Psalm 101: Vouloir m'est pris de mettre en
**kern	**kern	**kern	**kern
*part4	*part3	*part2	*part1
*staff4	*staff3	*staff2	*staff1
*I"bassus	*I"tenor	*I"contra	*I"superius
*clefF4	*clefC4	*clefC3	*clefC1
*k[b-]	*k[b-]	*k[b-]	*k[b-]
!!LO:TX:omd:t=
*M2/2	*M2/2	*M2/2	*M2/2
*met(c|)	*met(c|)	*met(c|)	*met(c|)
=1	=1	=1	=1
1C	1C	1G	1c
=2	=2	=2	=2
1BB-	1F	1B-	1d
=3	=3	=3	=3
1FF	1A	1c	1f
=4	=4	=4	=4
2C	2G	2c	2e
2C	2G	2c	2e
=5	=5	=5	=5
2F	2A	2c	2f
2F	2c	2A	2a
=6	=6	=6	=6
2BB-	2B-	2d	2g
2FF	2A	2c	[2f
=7	=7	=7	=7
1C	1G	1c	2f]
.	.	.	2e
=8	=8	=8	=8
1FF	1F	1c	1f
=9	=9	=9	=9
1r	1r	1r	1r
=10	=10	=10	=10
1FF	1F	1A	1c
=11	=11	=11	=11
2AA	2E	2A	2c
2BB-	2D	2F	2B-
=12	=12	=12	=12
2FF	2C	2F	2A
2C	2C	2E	2G
=13	=13	=13	=13
2BB-	2F	2D	2B-
2D	2F	2D	2A
=14	=14	=14	=14
2C	2G	2E	2c
2AA	2A	2E	2c
=15	=15	=15	=15
1GG	1B-	1G	1d
=16	=16	=16	=16
1AA	1A	1E	1c#X
=17	=17	=17	=17
1r	1r	1r	1r
=18	=18	=18	=18
1F	1A	1c	1f
=19	=19	=19	=19
2F	2c	2A	2f
2BB-	2B-	2d	2f
=20	=20	=20	=20
1F	1A	1c	1f
=21	=21	=21	=21
1C	1G	1c	1e
=22	=22	=22	=22
2D	2F	2A	2d
2AA	2E	2A	2c
=23	=23	=23	=23
2D	2F	2A	2d
2C	2G	2c	2e
=24	=24	=24	=24
1F	1A	1c	1f
=25	=25	=25	=25
1r	1r	1r	1r
=26	=26	=26	=26
1BB-	1B-	1d	1f
=27	=27	=27	=27
1F	1A	1c	1f
=28	=28	=28	=28
1C	1G	1c	1e
=29	=29	=29	=29
1FF;	1F;	1c;	1f;
==	==	==	==
*-	*-	*-	*-
!!!software: music21 v.9.7.1
!!!software: music21 v.9.1.0
!!!RDF**kern: > = above
!!!RDF**kern: < = below
